X: 1417
T: the Old Maids of Galway   #2
R: reel
%S: s:2 b:10(5+5)
B: O'Neill's 1850 #1417
O: F.O'Neill
Z: Bob Safranek, rjs@gsp.org
N: Compacted via repeats and multiple endings [JC]
M: C|
L: 1/8
K: G
"^A"|:\
e>B (3{c}BAB e2dB | A2GA dBgf |\
(3efg df e2dB | A2GA BGG2 \
"^B":: g2fg efde |
g2bg eaaf |[1 g2fg efdB |\
A2GA BGG2 :|[2 bgaf gedB | A2GA BGG2 |]
